X: 113102
Q: "Reel."
M: C
L: 1/8
K: D
|: uf |\
d2(fd) A<A fd | egfe dBBe |\
[1 d2(fd) Agfe | d>B AF D/D/D D :|\
[2 d2(fd) ecdA | BdAF D/D/D D ||
|: uB |\
[1 ADFA BcdA | BdAF D/D/D D :|\
[2 AFGA Bcde | fdAF D/D/D D |]


